themes/plumerai-blog/static/images/larq-logo-text.svg

<svg viewBox="0 0 550 210" xmlns="http://www.w3.org/2000/svg"><g fill="#0a1d3c"><path d="m170 20h-130a20 20 0 0 0 -20 20v130a20 20 0 0 0 20 20h130a20 20 0 0 0 20-20v-130a20 20 0 0 0 -20-20z"/><path d="m70 190h10v20h-10z"/><path d="m90 190h10v20h-10z"/><path d="m110 190h10v20h-10z"/><path d="m130 190h10v20h-10z"/><path d="m0 130h20v10h-20z"/><path d="m0 110h20v10h-20z"/><path d="m0 90h20v10h-20z"/><path d="m0 70h20v10h-20z"/><path d="m190 130h20v10h-20z"/><path d="m190 110h20v10h-20z"/><path d="m190 90h20v10h-20z"/><path d="m190 70h20v10h-20z"/><path d="m130 0h10v20h-10z"/><path d="m110 0h10v20h-10z"/><path d="m90 0h10v20h-10z"/><path d="m70 0h10v20h-10z"/></g><path d="m170 75v5h20v-10h-20.36a35.77 35.77 0 0 1 .36 5z" fill="#7dfb9a"/><path d="m159.46 140h30.54v-10h-23.38a35.11 35.11 0 0 1 -7.16 10z" fill="#7dfb9a"/><path d="m170 115a35.77 35.77 0 0 1 -.36 5h20.36v-10h-20z" fill="#7dfb9a"/><path d="m170 90h20v10h-20z" fill="#7dfb9a"/><path d="m70 20h10v40h-10z" fill="#7dfb9a"/><path d="m130 20h10v20h-10z" fill="#7dfb9a"/><path d="m120 43.39v-23.39h-10v30.55a35.11 35.11 0 0 1 10-7.16z" fill="#7dfb9a"/><path d="m90 20h10v40h-10z" fill="#7dfb9a"/><path d="m120 90h-95-5v10h100z" fill="#7dfb9a"/><path d="m140 107.5v-31.5a5 5 0 0 0 -10 0v31.5a2.5 2.5 0 0 1 -2.5 2.5h-107.5v10h107.5a12.52 12.52 0 0 0 12.5-12.5z" fill="#7dfb9a"/><path d="m120 180v-40h15a25 25 0 0 0 25-25v-40.07a35.12 35.12 0 0 1 3.55-15.53l5.87-12.06a5.16 5.16 0 0 0 -.24-5.09 5 5 0 0 0 -6.49-1.69l-9.78 5.1a38.38 38.38 0 0 1 -17.91 4.34 25.05 25.05 0 0 0 -24.5 20h-90.5v10h100v-4.56a15.29 15.29 0 0 1 14.25-15.44 15 15 0 0 1 15.75 15v40a15 15 0 0 1 -15 15h-115v10h70v40h-10a10 10 0 0 0 -10 10h30v-50h10v50h30a10 10 0 0 0 -10-10z" fill="#7dfb9a"/><path d="m250 115v-65h-10v65a25 25 0 0 0 25 25h45v-10h-45a15 15 0 0 1 -15-15z" fill="#0a1d3c"/><path d="m405 95v45h10v-45a15 15 0 0 1 15-15h20v-10h-20a25 25 0 0 0 -25 25z" fill="#0a1d3c"/><path d="m360 70h-35v10h35a15 15 0 0 1 15 15v5h-50a5 5 0 0 0 -5 5v10c0 13.55 11.91 25 26 25h34a5 5 0 0 0 5-5v-40a25 25 0 0 0 -25-25zm15 60h-29c-8.52 0-16-7-16-15v-5h45z" fill="#0a1d3c"/><path d="m550 147.9-15-15v-37.9a25 25 0 0 0 -25-25h-40a5 5 0 0 0 -5 5v40a25 25 0 0 0 25 25h37.93l15 15zm-60-17.9a15 15 0 0 1 -15-15v-35h35a15 15 0 0 1 15 15v27.93l-16.46-16.47-7.08 7.08 16.47 16.46z" fill="#0a1d3c"/></svg>

<svg xmlns="http://www.w3.org/2000/svg" id="Layer_1" data-name="Layer 1" viewBox="0 0 550 210"><defs><style>.cls-1{fill:#0a1d3c}.cls-2{fill:#7dfb9a}</style></defs><title>larq-logo-h-pos</title><path d="M170,20H40A20,20,0,0,0,20,40V170a20,20,0,0,0,20,20H170a20,20,0,0,0,20-20V40A20,20,0,0,0,170,20Z" class="cls-1"/><rect width="10" height="20" x="70" y="190" class="cls-1"/><rect width="10" height="20" x="90" y="190" class="cls-1"/><rect width="10" height="20" x="110" y="190" class="cls-1"/><rect width="10" height="20" x="130" y="190" class="cls-1"/><rect width="20" height="10" y="130" class="cls-1"/><rect width="20" height="10" y="110" class="cls-1"/><rect width="20" height="10" y="90" class="cls-1"/><rect width="20" height="10" y="70" class="cls-1"/><rect width="20" height="10" x="190" y="130" class="cls-1"/><rect width="20" height="10" x="190" y="110" class="cls-1"/><rect width="20" height="10" x="190" y="90" class="cls-1"/><rect width="20" height="10" x="190" y="70" class="cls-1"/><rect width="10" height="20" x="130" class="cls-1"/><rect width="10" height="20" x="110" class="cls-1"/><rect width="10" height="20" x="90" class="cls-1"/><rect width="10" height="20" x="70" class="cls-1"/><path d="M170,75v5h20V70H169.64A35.77,35.77,0,0,1,170,75Z" class="cls-2"/><path d="M159.46,140H190V130H166.62A35.11,35.11,0,0,1,159.46,140Z" class="cls-2"/><path d="M170,115a35.77,35.77,0,0,1-.36,5H190V110H170Z" class="cls-2"/><rect width="20" height="10" x="170" y="90" class="cls-2"/><rect width="10" height="40" x="70" y="20" class="cls-2"/><rect width="10" height="20" x="130" y="20" class="cls-2"/><path d="M120,43.39V20H110V50.55A35.11,35.11,0,0,1,120,43.39Z" class="cls-2"/><rect width="10" height="40" x="90" y="20" class="cls-2"/><polygon points="120 90 25 90 20 90 20 100 120 100 120 90" class="cls-2"/><path d="M140,107.5V76a5,5,0,0,0-10,0v31.5a2.5,2.5,0,0,1-2.5,2.5H20v10H127.5A12.52,12.52,0,0,0,140,107.5Z" class="cls-2"/><path d="M120,180V140h15a25,25,0,0,0,25-25V74.93a35.12,35.12,0,0,1,3.55-15.53l5.87-12.06a5.16,5.16,0,0,0-.24-5.09,5,5,0,0,0-6.49-1.69l-9.78,5.1A38.38,38.38,0,0,1,135,50h0a25.05,25.05,0,0,0-24.5,20H20V80H120V75.44A15.29,15.29,0,0,1,134.25,60,15,15,0,0,1,150,75v40a15,15,0,0,1-15,15H20v10H90v40H80a10,10,0,0,0-10,10h30V140h10v50h30a10,10,0,0,0-10-10Z" class="cls-2"/><path d="M250,115V50H240v65a25,25,0,0,0,25,25h45V130H265A15,15,0,0,1,250,115Z" class="cls-1"/><path d="M405,95v45h10V95a15,15,0,0,1,15-15h20V70H430A25,25,0,0,0,405,95Z" class="cls-1"/><path d="M360,70H325V80h35a15,15,0,0,1,15,15v5H325a5,5,0,0,0-5,5v10c0,13.55,11.91,25,26,25h34a5,5,0,0,0,5-5V95A25,25,0,0,0,360,70Zm15,60H346c-8.52,0-16-7-16-15v-5h45Z" class="cls-1"/><path d="M550,147.9l-15-15V95a25,25,0,0,0-25-25H470a5,5,0,0,0-5,5v40a25,25,0,0,0,25,25h37.93l15,15ZM490,130a15,15,0,0,1-15-15V80h35a15,15,0,0,1,15,15v27.93l-16.46-16.47-7.08,7.08L517.93,130Z" class="cls-1"/></svg>
